comment-minus.svg

<svg  viewBox="0 0 24 24" fill="currentColor"><path  d="M20 2H4C2.9 2 2 2.89 2 4V16C2 17.11 2.9 18 4 18H8V21C8 21.55 8.45 22 9 22H9.5C9.75 22 10 21.9 10.2 21.71L13.9 18H20C21.11 18 22 17.11 22 16V4C22 2.9 21.11 2 20 2M16 11H8V9H16V11Z"/></svg>

<svg fill="currentColor" viewBox="0 0 24 24"><path d="M20 2H4a2 2 0 0 0-2 2v12a2 2 0 0 0 2 2h4v3c0 .55.45 1 1 1h.5c.25 0 .5-.1.7-.29L13.9 18H20c1.11 0 2-.89 2-2V4a2 2 0 0 0-2-2m-4 9H8V9h8z"/></svg>
